X:1
T: John Grumlie
C:
R:Jig
Q:180
K:Bb
M:6/8
L:1/16
|:F2|D4F2 F4G2|F4G2 B4c2|d4B2 e4d2|d6 c4F2|D4F2 F4G2|F2G2A2 B4c2|d4f2 e2d2c2|B6B4:|
|:Bc|d4d2 B4B2|e6 c4c2|d4B2 e4d2|d6 c4F2|D4F2 F4G2|F6 e4e2|d4f2 e2d2c2|B6b4:|
